X:1
T:Title
%%score { ( 1 4 ) | ( 2 3 ) }
L:1/8
M:6/8
K:D
V:1 treble nm="Grand Piano"
V:4 treble 
V:2 bass 
V:3 bass 
V:1
 z3 z2[Q:1/4=69] D | F2 F [EA]2 [EA]/[EA]/ | [Dd]2 [Ed] [Ec]2 B/B/ | A>GF G2 [CE] | F3- F2 D | %5
 F2 F/F/ [A,EA]2 [EA]/[EA]/ | [Dd]2 [Dd] [=Fd]2 [DF^G]/[DFG]/ | .A3 z3 | A6 | A>GF [CG]2 [CE] | %10
[M:5/8] [A,D]-[A,D]- [A,D]3 |[M:2/4][Q:1/4=72] [DF]/[EG]/[FA] [DF]/[EG]/[FA] | [Fd]e/d/ c/B/[FA] | %13
 z2 z [Fd] |[M:3/8] d z z |[M:1/8] z | A/A/ |[M:2/4] [Ad][Gc] [Fd][FA]/[FA]/ | %18
[M:9/16] B^A/-A/B-B/e |[M:2/4] dd/d/ [Ed]/[Ed]/[Gc] |[M:3/8] [Fd]3 |] %21
V:2
 z3 z2 [D,F,] | [D,A,D]2 [D,A,D] [C,A,]2 [C,E,] | [B,,F,]2 [B,,^G,] [A,,A,]2 [G,A,C]/[G,A,C]/ | %3
 [F,A,D]>[E,A,D][D,A,D] [E,A,C]2 [A,,A,] | [D,A,D]3- [D,A,D]2 [D,F,] | [D,A,D]2 D/D/ C,2 [C,E,] | %6
 [B,,F,]2 [B,,F,] [^A,,^G,]2 A,,/A,,/ | z z/ A,/[A,,F,] [A,,G,]2 [A,,E,] | %8
 [D,F,D]2 [E,G,] [F,A,]2[K:treble] [G,DG]/[G,CG]/ | [A,DF]>[A,E][A,D][K:bass] [A,,E,A,]2 [A,,G,] | %10
[M:5/8] [D,F,]-[D,F,]- [D,F,]3 |[M:2/4] [D,A,]/[D,A,]/[D,D] [D,A,]/[D,A,]/[D,D] | %12
 [D,A,][K:treble][G,B,G]/[G,B,G]/ [G,DG]/[G,DG]/[K:bass][D,D] | [D,D]/[D,D]/[D,A,] [D,A,].[D,A,] | %14
[M:3/8] .[F,A,F] [A,E]2- |[M:1/8] [A,E] | [A,CE]/[G,CE]/ |[M:2/4] [F,D][E,A,] [D,A,][D,D]/[D,D]/ | %18
[M:9/16][K:treble] [G,DG][G,CG]/-[G,CG]/[G,DG]-[G,DG]/[G,B,G] | %19
[M:2/4] [A,F][A,F]/[A,F]/[K:bass] [A,,A,]/[A,,A,]/[A,,A,] |[M:3/8] [D,A,]3 |] %21
V:3
 x6 | x6 | x6 | x6 | x6 | z2 [D,A,] z3 | x6 | .A,,3 z3 | x5[K:treble] x | x3[K:bass] x3 | %10
[M:5/8] x5 |[M:2/4] x4 | x[K:treble] x2[K:bass] x | x4 |[M:3/8] x3 |[M:1/8] x | x |[M:2/4] x4 | %18
[M:9/16][K:treble] x9/2 |[M:2/4] x2[K:bass] x2 |[M:3/8] x3 |] %21
V:4
 x6 | x6 | x6 | x6 | x6 | x6 | x6 | [DF]>E[DA] [EA]2 [CA] | z2 C D2 B/B/ | x6 |[M:5/8] x5 | %11
[M:2/4] x4 | x4 | [FA]/[FA]/[Fd] .[Fd]>E, |[M:3/8] z/ G,/ c2- |[M:1/8] c | x |[M:2/4] x4 | %18
[M:9/16] x9/2 |[M:2/4] x4 |[M:3/8] x3 |] %21

